src/img/icon/plan.svg

<svg width="63" height="63" viewBox="0 0 63 63" fill="none" xmlns="http://www.w3.org/2000/svg">
<g clip-path="url(#clip0)">
<path d="M27.1515 44.8611C27.5148 45.3395 27.9836 45.7277 28.5214 45.9954C29.0592 46.2631 29.6515 46.4031 30.2523 46.4046C30.6775 46.4051 31.1 46.3353 31.5024 46.1978C31.905 46.3355 32.3276 46.4055 32.7531 46.4051C33.3538 46.4036 33.9461 46.2636 34.4839 45.9959C35.0217 45.7281 35.4905 45.34 35.8539 44.8616L39.657 39.827C41.0362 37.9938 41.7843 35.763 41.7892 33.4689C41.7891 32.3611 41.5033 31.2721 40.9595 30.3069C40.4157 29.3418 39.6322 28.5332 38.6847 27.9593C37.7371 27.3853 36.6576 27.0654 35.5504 27.0304C34.4432 26.9954 33.3456 27.2465 32.3638 27.7595V26.658H33.1365C34.272 26.6574 35.3607 26.206 36.1636 25.4031C36.9665 24.6002 37.4179 23.5114 37.4185 22.376C37.4185 22.1475 37.3278 21.9285 37.1662 21.7669C37.0047 21.6054 36.7856 21.5146 36.5572 21.5146H34.9231C34.2447 21.5152 33.5761 21.6772 32.9727 21.9874C32.3693 22.2975 31.8485 22.7469 31.4532 23.2983C31.0373 22.7456 30.4987 22.297 29.8799 21.9879C29.2611 21.6788 28.579 21.5177 27.8873 21.5171C27.6589 21.5171 27.4398 21.6079 27.2783 21.7694C27.1167 21.9309 27.026 22.15 27.026 22.3784C27.026 22.6069 27.1167 22.826 27.2783 22.9875C27.4398 23.149 27.6589 23.2398 27.8873 23.2398C28.6175 23.2404 29.3175 23.5308 29.8338 24.0471C30.3501 24.5633 30.6404 25.2634 30.6411 25.9936V27.7595C29.6592 27.2465 28.5617 26.9954 27.4544 27.0304C26.3472 27.0654 25.2677 27.3853 24.3202 27.9593C23.3727 28.5332 22.5892 29.3418 22.0454 30.3069C21.5015 31.2721 21.2158 32.3611 21.2157 33.4689C21.2203 35.7631 21.9682 37.9941 23.3474 39.8275L27.1515 44.8611ZM34.9207 23.2393H35.5443C35.3664 23.7354 35.0396 24.1646 34.6087 24.4681C34.1777 24.7715 33.6636 24.9346 33.1365 24.9349H32.5134C32.6913 24.4389 33.018 24.0099 33.4489 23.7065C33.8797 23.4031 34.3937 23.2401 34.9207 23.2398V23.2393ZM27.6579 28.7493C28.8678 28.7482 30.0315 29.214 30.9064 30.0497C31.068 30.1989 31.28 30.2818 31.5 30.2818C31.72 30.2818 31.9319 30.1989 32.0935 30.0497C32.7621 29.4119 33.6033 28.9846 34.5126 28.8207C35.422 28.6568 36.3594 28.7636 37.2086 29.1277C38.0578 29.4919 38.7813 30.0974 39.2894 30.8692C39.7974 31.641 40.0677 32.5449 40.0665 33.4689C40.0626 35.3886 39.4368 37.2553 38.2828 38.7894L34.4787 43.823C34.1778 44.2088 33.7571 44.4836 33.2828 44.604C32.8086 44.7244 32.3078 44.6836 31.8593 44.488C31.7473 44.437 31.6257 44.4106 31.5027 44.4106C31.3796 44.4106 31.258 44.437 31.1461 44.488C30.6976 44.6836 30.1968 44.7245 29.7225 44.6041C29.2482 44.4837 28.8275 44.2089 28.5267 43.823L24.7235 38.7885C23.5692 37.2548 22.9429 35.3884 22.9384 33.4689C22.9398 32.2176 23.4375 31.018 24.3223 30.1332C25.2071 29.2484 26.4067 28.7507 27.6579 28.7493Z" fill="#FF2625"/>
<path d="M50.5314 4.92188L38.5713 4.92532L37.2483 0.608836C37.1944 0.432719 37.0854 0.278539 36.9374 0.168951C36.7893 0.0593628 36.61 0.000145466 36.4259 5.4004e-08H26.5742C26.3899 -6.52265e-05 26.2104 0.0590549 26.0621 0.168658C25.9139 0.278262 25.8048 0.432558 25.7508 0.608836L24.4278 4.92532L12.4686 4.92188C11.5878 4.92292 10.7434 5.27327 10.1206 5.89609C9.49776 6.51891 9.1474 7.36334 9.14636 8.24414V59.6777C9.1474 60.5585 9.49776 61.403 10.1206 62.0258C10.7434 62.6486 11.5878 62.999 12.4686 63H50.5314C51.4122 62.999 52.2567 62.6486 52.8795 62.0258C53.5023 61.403 53.8527 60.5585 53.8537 59.6777V8.24414C53.8527 7.36334 53.5023 6.51891 52.8795 5.89609C52.2567 5.27327 51.4122 4.92292 50.5314 4.92188ZM47.2087 11.5664V56.3555H15.7914V11.5664H47.2087ZM25.0642 6.64847C25.2488 6.64885 25.4286 6.58988 25.5772 6.48025C25.7257 6.37062 25.8351 6.21615 25.8891 6.03963L27.2111 1.72266H35.789L37.111 6.03963C37.1649 6.21591 37.2741 6.37021 37.4223 6.47981C37.5705 6.58941 37.75 6.64853 37.9344 6.64847L41.9984 6.64552V9.84375H21.0002V6.64453L25.0642 6.64847ZM52.1311 59.6777C52.1305 60.1018 51.9618 60.5084 51.662 60.8083C51.3621 61.1081 50.9555 61.2768 50.5314 61.2773H12.4686C12.0445 61.2768 11.638 61.1081 11.3381 60.8083C11.0382 60.5084 10.8695 60.1018 10.869 59.6777V8.24414C10.8695 7.82006 11.0382 7.41349 11.3381 7.11362C11.638 6.81375 12.0445 6.64505 12.4686 6.64453H19.2775V9.84375H14.9301C14.7016 9.84375 14.4825 9.9345 14.321 10.096C14.1595 10.2576 14.0687 10.4766 14.0687 10.7051V57.2168C14.0687 57.4452 14.1595 57.6643 14.321 57.8258C14.4825 57.9874 14.7016 58.0781 14.9301 58.0781H48.07C48.2985 58.0781 48.5175 57.9874 48.6791 57.8258C48.8406 57.6643 48.9313 57.4452 48.9313 57.2168V10.7051C48.9313 10.4766 48.8406 10.2576 48.6791 10.096C48.5175 9.9345 48.2985 9.84375 48.07 9.84375H43.7225V6.64453H50.5314C50.9555 6.64505 51.3621 6.81375 51.662 7.11362C51.9618 7.41349 52.1305 7.82006 52.1311 8.24414V59.6777Z" fill="#FF2625"/>
<path d="M30.1769 6.64453H32.8224C33.0508 6.64453 33.2699 6.55378 33.4314 6.39225C33.593 6.23072 33.6837 6.01164 33.6837 5.7832C33.6837 5.55476 33.593 5.33568 33.4314 5.17415C33.2699 5.01262 33.0508 4.92188 32.8224 4.92188H30.1769C29.9484 4.92188 29.7294 5.01262 29.5678 5.17415C29.4063 5.33568 29.3156 5.55476 29.3156 5.7832C29.3156 6.01164 29.4063 6.23072 29.5678 6.39225C29.7294 6.55378 29.9484 6.64453 30.1769 6.64453Z" fill="#FF2625" stroke="#FF2625"/>
</g>
<defs>
<clipPath id="clip0">
<rect width="63" height="63" fill="white"/>
</clipPath>
</defs>
</svg>

<svg xmlns="http://www.w3.org/2000/svg" viewBox="0 0 44.71 63">
    <path d="M27.15,44.86A3.88,3.88,0,0,0,28.52,46a4,4,0,0,0,1.73.4,3.52,3.52,0,0,0,1.25-.2,3.86,3.86,0,0,0,1.25.21A4.11,4.11,0,0,0,34.48,46a3.88,3.88,0,0,0,1.37-1.14l3.81-5a10.67,10.67,0,0,0,2.13-6.36A6.45,6.45,0,0,0,41,30.31,6.35,6.35,0,0,0,38.68,28,6.49,6.49,0,0,0,35.55,27a6.56,6.56,0,0,0-3.19.73v-1.1h.78a4.3,4.3,0,0,0,4.28-4.28.86.86,0,0,0-.25-.61.89.89,0,0,0-.61-.26H34.92A4.42,4.42,0,0,0,33,22a4.36,4.36,0,0,0-1.52,1.31,4.45,4.45,0,0,0-3.56-1.78.86.86,0,1,0,0,1.72A2.77,2.77,0,0,1,30.64,26v1.77a6.43,6.43,0,0,0-6.32.2,6.46,6.46,0,0,0-3.1,5.51,10.6,10.6,0,0,0,2.13,6.36Zm7.77-21.62h.62a2.52,2.52,0,0,1-.93,1.23,2.58,2.58,0,0,1-1.47.46h-.63a2.58,2.58,0,0,1,.94-1.22,2.5,2.5,0,0,1,1.47-.47Zm-7.26,5.51a4.69,4.69,0,0,1,3.25,1.3.87.87,0,0,0,1.18,0,4.72,4.72,0,0,1,8,3.42,8.88,8.88,0,0,1-1.79,5.32l-3.8,5a2.17,2.17,0,0,1-1.2.78,2.24,2.24,0,0,1-1.42-.11.86.86,0,0,0-.36-.08.85.85,0,0,0-.35.08,2.26,2.26,0,0,1-1.43.11,2.18,2.18,0,0,1-1.19-.78l-3.81-5a8.89,8.89,0,0,1-1.78-5.32,4.71,4.71,0,0,1,4.72-4.72Z"
          transform="translate(-9.15)"/>
    <path d="M50.53,4.92h-12L37.25.61A.86.86,0,0,0,36.43,0H26.57a.87.87,0,0,0-.51.17.81.81,0,0,0-.31.44L24.43,4.93h-12A3.33,3.33,0,0,0,9.15,8.24V59.68A3.31,3.31,0,0,0,12.47,63H50.53a3.31,3.31,0,0,0,3.32-3.32V8.24a3.33,3.33,0,0,0-3.32-3.32Zm-3.32,6.65V56.36H15.79V11.57ZM25.06,6.65a.87.87,0,0,0,.52-.17A.81.81,0,0,0,25.89,6l1.32-4.32h8.58L37.11,6a.81.81,0,0,0,.31.44.87.87,0,0,0,.51.17H42V9.84H21V6.64Zm27.07,53a1.61,1.61,0,0,1-.47,1.13,1.59,1.59,0,0,1-1.13.47H12.47a1.59,1.59,0,0,1-1.13-.47,1.61,1.61,0,0,1-.47-1.13V8.24a1.61,1.61,0,0,1,.47-1.13,1.63,1.63,0,0,1,1.13-.47h6.81v3.2H14.93a.83.83,0,0,0-.61.26.86.86,0,0,0-.25.61V57.22a.88.88,0,0,0,.25.61.86.86,0,0,0,.61.25H48.07a.86.86,0,0,0,.61-.25.88.88,0,0,0,.25-.61V10.71a.86.86,0,0,0-.25-.61.83.83,0,0,0-.61-.26H43.72V6.64h6.81a1.63,1.63,0,0,1,1.13.47,1.61,1.61,0,0,1,.47,1.13Z"
          transform="translate(-9.15)"/>
    <path d="M30.18,6.64h2.64a.85.85,0,0,0,.86-.86.88.88,0,0,0-.25-.61.86.86,0,0,0-.61-.25H30.18a.86.86,0,0,0-.61.25.88.88,0,0,0-.25.61.85.85,0,0,0,.86.86Z"/>
</svg>
